public/assets/twitter.svg

<svg
    width="26"
    height="21"
    viewBox="0 0 26 21"
    fill="none"
    xmlns="http://www.w3.org/2000/svg"
    class="mr-2"
    >
    <path
        d="M23.2689 5.27976C23.2847 5.50315 23.2847 5.72653 23.2847 5.95197C23.2847 12.8212 17.9589 20.7436 8.22039 20.7436V20.7395C5.34362 20.7436 2.5266 19.9345 0.104828 18.4089C0.523134 18.4583 0.943538 18.483 1.36499 18.484C3.74902 18.4861 6.06491 17.7006 7.94047 16.2543C5.67491 16.2121 3.68821 14.7617 2.99418 12.6442C3.78781 12.7945 4.60555 12.7636 5.38451 12.5546C2.91451 12.0646 1.13749 9.93373 1.13749 7.45903C1.13749 7.43638 1.13749 7.41476 1.13749 7.39315C1.87346 7.79565 2.69749 8.01903 3.54039 8.04373C1.21402 6.51712 0.496925 3.47829 1.90176 1.10241C4.58983 4.3502 8.55588 6.32462 12.8134 6.53359C12.3867 4.728 12.9696 2.83594 14.3451 1.56668C16.4775 -0.401559 19.8313 -0.300677 21.8358 1.79212C23.0215 1.56256 24.158 1.13535 25.198 0.530058C24.8027 1.73344 23.9756 2.75565 22.8706 3.40521C23.92 3.28373 24.9453 3.00785 25.9109 2.58682C25.2001 3.6327 24.3047 4.54373 23.2689 5.27976Z"
        fill="#AAAAAA"
    />
</svg>

<svg width="26" height="21" fill="none" xmlns="http://www.w3.org/2000/svg" class="mr-2"><path d="M23.269 5.28c.016.223.016.447.016.672 0 6.87-5.326 14.792-15.065 14.792v-.005a15.19 15.19 0 0 1-8.115-2.33 10.757 10.757 0 0 0 7.836-2.155c-2.266-.042-4.253-1.492-4.947-3.61.794.15 1.612.12 2.39-.09-2.47-.49-4.247-2.62-4.247-5.095v-.066a5.32 5.32 0 0 0 2.403.65C1.214 6.518.497 3.479 1.902 1.104 4.59 4.35 8.556 6.324 12.813 6.532a5.142 5.142 0 0 1 1.532-4.966c2.132-1.969 5.486-1.868 7.49.225A10.744 10.744 0 0 0 25.199.53a5.236 5.236 0 0 1-2.327 2.875 10.682 10.682 0 0 0 3.04-.818A10.65 10.65 0 0 1 23.27 5.28Z" fill="#AAA"/></svg>
